X: 1
T: Captain Norman Orr Ewing
C: Pipe Major W. Ross (1912)
B: Scots Guards  p.23#35
B: BSFC IX-6
R: march
Z: John Chambers <jc:trillian.mit.edu>
M: 2/4
L: 1/8
K: D
|: f/e/ \
|| "D"df "(A7)"AB/c/ | "D"d2 "(A7)"Ag | "D"f>e "Bm"df | "Em"fe "A7"ef/e/ \
|  "D"df "(A7)"AB/c/ | "D"d2 "(A7)"Ag | "D"f2 "A7"e>f | "D"d3 :|
[| f/g/ \
|| "D"a>f da | fa de/f/ | "A7"g>e ce     | "E7"Be "A7"Af/g/ \
|  "D"a>f da | fa dg    | f2 "A7"e>f     | "D"d3 f/g/ ||
|| "D"a>f da | fa de/f/ | "A7"g>e ce     | "E7"Be "A7"Af/e/ \
|  "D"df "(A7)"AB/c/    | "D"d2 "(A7)"Ag | "D"f2 "A7"e>f | "D"d3 |]
|: f/e/ \
|| "D"dA "G"BG | "D"A2 "G"d>B | "D"A>B "Bm"df | "Em"fe "A7"e/g/f/e/ \
|  "D"dA "G"BG | "D"A2 "G"dg  | "D"f2 "A7"e>f | "D"d3 :|
|: g \
|| "D"fa fd | A2 "G"d>B | "D"A>B "Bm"df | "Em"fe "A7"eg \
|  "D"fa fd | A2 "G"d>g | "D"f2 "A7"e>f | "D"d3 :|
